svgs/solid/truck-fast.svg

<svg xmlns="http://www.w3.org/2000/svg" viewBox="0 0 640 512"><!--! Font Awesome Free 6.6.0 by @fontawesome - https://fontawesome.com License - https://fontawesome.com/license/free (Icons: CC BY 4.0, Fonts: SIL OFL 1.1, Code: MIT License) Copyright 2024 Fonticons, Inc. --><path d="M112 0C85.5 0 64 21.5 64 48l0 48L16 96c-8.8 0-16 7.2-16 16s7.2 16 16 16l48 0 208 0c8.8 0 16 7.2 16 16s-7.2 16-16 16L64 160l-16 0c-8.8 0-16 7.2-16 16s7.2 16 16 16l16 0 176 0c8.8 0 16 7.2 16 16s-7.2 16-16 16L64 224l-48 0c-8.8 0-16 7.2-16 16s7.2 16 16 16l48 0 144 0c8.8 0 16 7.2 16 16s-7.2 16-16 16L64 288l0 128c0 53 43 96 96 96s96-43 96-96l128 0c0 53 43 96 96 96s96-43 96-96l32 0c17.7 0 32-14.3 32-32s-14.3-32-32-32l0-64 0-32 0-18.7c0-17-6.7-33.3-18.7-45.3L512 114.7c-12-12-28.3-18.7-45.3-18.7L416 96l0-48c0-26.5-21.5-48-48-48L112 0zM544 237.3l0 18.7-128 0 0-96 50.7 0L544 237.3zM160 368a48 48 0 1 1 0 96 48 48 0 1 1 0-96zm272 48a48 48 0 1 1 96 0 48 48 0 1 1 -96 0z"/></svg>

<svg xmlns="http://www.w3.org/2000/svg" viewBox="0 0 640 512"><!--! Font Awesome Free 6.5.2 by @fontawesome - https://fontawesome.com License - https://fontawesome.com/license/free (Icons: CC BY 4.0, Fonts: SIL OFL 1.1, Code: MIT License) Copyright 2024 Fonticons, Inc. --><path d="M112 0C85.5 0 64 21.5 64 48V96H16c-8.8 0-16 7.2-16 16s7.2 16 16 16H64 272c8.8 0 16 7.2 16 16s-7.2 16-16 16H64 48c-8.8 0-16 7.2-16 16s7.2 16 16 16H64 240c8.8 0 16 7.2 16 16s-7.2 16-16 16H64 16c-8.8 0-16 7.2-16 16s7.2 16 16 16H64 208c8.8 0 16 7.2 16 16s-7.2 16-16 16H64V416c0 53 43 96 96 96s96-43 96-96H384c0 53 43 96 96 96s96-43 96-96h32c17.7 0 32-14.3 32-32s-14.3-32-32-32V288 256 237.3c0-17-6.7-33.3-18.7-45.3L512 114.7c-12-12-28.3-18.7-45.3-18.7H416V48c0-26.5-21.5-48-48-48H112zM544 237.3V256H416V160h50.7L544 237.3zM160 368a48 48 0 1 1 0 96 48 48 0 1 1 0-96zm272 48a48 48 0 1 1 96 0 48 48 0 1 1 -96 0z"/></svg>
